X:1
T: The Royal Recovery
C:
R:Strathspey
Q: 128
K:A
M:4/4
L:1/16
|:A,3B, C3D E3F EC3|A,3B, E3C EA3 A3c|A,3B, C3D E3F FEDC|B,2Bc dcBA GB3 B3c|
A,3B, C3D E3F EC3|A,3B, E3C EA3 A2cd|e3c AE3 F3d f3e|d3c B3A GB3 B2c2|
AA3 c3A e3A c3A|E3A c3A fedc B3c|AA3 c3A e3A c3A|F3G1/2A1/2 FEDC B,B3 B3c|
AA3 c3A e3A c3A|E3A c3A fedc B3c|A3C A3E F3A FD3|E3D C3B, A,A3 A4:|
